app/assets/images/heroicons/micro/arrows-pointing-out.svg

<svg width="16" height="16" viewBox="0 0 16 16" fill="none" xmlns="http://www.w3.org/2000/svg">
<path fill-rule="evenodd" clip-rule="evenodd" d="M2.75 9C3.16421 9 3.5 9.33579 3.5 9.75V11.4393L5.71967 9.21967C6.01256 8.92678 6.48744 8.92678 6.78033 9.21967C7.07322 9.51256 7.07322 9.98744 6.78033 10.2803L4.56066 12.5H6.25C6.66421 12.5 7 12.8358 7 13.25C7 13.6642 6.66421 14 6.25 14H2.75C2.33579 14 2 13.6642 2 13.25V9.75C2 9.33579 2.33579 9 2.75 9Z" fill="#0F172A"/>
<path fill-rule="evenodd" clip-rule="evenodd" d="M2.75 7C3.16421 7 3.5 6.66421 3.5 6.25V4.56066L5.71967 6.78033C6.01256 7.07322 6.48744 7.07322 6.78033 6.78033C7.07322 6.48744 7.07322 6.01256 6.78033 5.71967L4.56066 3.5H6.25C6.66421 3.5 7 3.16421 7 2.75C7 2.33579 6.66421 2 6.25 2H2.75C2.33579 2 2 2.33579 2 2.75V6.25C2 6.66421 2.33579 7 2.75 7Z" fill="#0F172A"/>
<path fill-rule="evenodd" clip-rule="evenodd" d="M13.25 9C12.8358 9 12.5 9.33579 12.5 9.75V11.4393L10.2803 9.21967C9.98744 8.92678 9.51256 8.92678 9.21967 9.21967C8.92678 9.51256 8.92678 9.98744 9.21967 10.2803L11.4393 12.5H9.75C9.33579 12.5 9 12.8358 9 13.25C9 13.6642 9.33579 14 9.75 14H13.25C13.6642 14 14 13.6642 14 13.25V9.75C14 9.33579 13.6642 9 13.25 9Z" fill="#0F172A"/>
<path fill-rule="evenodd" clip-rule="evenodd" d="M13.25 7C12.8358 7 12.5 6.66421 12.5 6.25V4.56066L10.2803 6.78033C9.98744 7.07322 9.51256 7.07322 9.21967 6.78033C8.92678 6.48744 8.92678 6.01256 9.21967 5.71967L11.4393 3.5H9.75C9.33579 3.5 9 3.16421 9 2.75C9 2.33579 9.33579 2 9.75 2H13.25C13.6642 2 14 2.33579 14 2.75V6.25C14 6.66421 13.6642 7 13.25 7Z" fill="#0F172A"/>
</svg>

<svg xmlns="http://www.w3.org/2000/svg" viewBox="0 0 16 16" fill="currentColor" aria-hidden="true" data-slot="icon">
  <path fill-rule="evenodd" d="M2.75 9a.75.75 0 0 1 .75.75v1.69l2.22-2.22a.75.75 0 0 1 1.06 1.06L4.56 12.5h1.69a.75.75 0 0 1 0 1.5h-3.5a.75.75 0 0 1-.75-.75v-3.5A.75.75 0 0 1 2.75 9ZM2.75 7a.75.75 0 0 0 .75-.75V4.56l2.22 2.22a.75.75 0 0 0 1.06-1.06L4.56 3.5h1.69a.75.75 0 0 0 0-1.5h-3.5a.75.75 0 0 0-.75.75v3.5c0 .414.336.75.75.75ZM13.25 9a.75.75 0 0 0-.75.75v1.69l-2.22-2.22a.75.75 0 1 0-1.06 1.06l2.22 2.22H9.75a.75.75 0 0 0 0 1.5h3.5a.75.75 0 0 0 .75-.75v-3.5a.75.75 0 0 0-.75-.75ZM13.25 7a.75.75 0 0 1-.75-.75V4.56l-2.22 2.22a.75.75 0 1 1-1.06-1.06l2.22-2.22H9.75a.75.75 0 0 1 0-1.5h3.5a.75.75 0 0 1 .75.75v3.5a.75.75 0 0 1-.75.75Z" clip-rule="evenodd"/>
</svg>
